reply-outline.svg

<svg fill="currentColor" viewBox="0 0 24 24"><path d="M8 9.8v.9l1.7.3c2.6.4 4.5 1.4 5.9 2.7-1.7-.5-3.5-.8-5.6-.8H8v1.3L5.8 12zM10 5l-7 7 7 7v-4.1c5 0 8.5 1.6 11 5.1-1-5-4-10-11-11"/></svg>

<svg  viewBox="0 0 24 24" fill="currentColor"><path  d="M8,9.8V10.7L9.7,11C12.3,11.4 14.2,12.4 15.6,13.7C13.9,13.2 12.1,12.9 10,12.9H8V14.2L5.8,12L8,9.8M10,5L3,12L10,19V14.9C15,14.9 18.5,16.5 21,20C20,15 17,10 10,9"/></svg>
